!!!COM: Bach, Johann Sebastian
!!!OPR: Six Concerts Avec plusieurs ... le prince regnant d'Anhalt-Coethen
!!!OTL: Brandenburgische Konzerte F
!!!XEN: Brandenburg Concerto No. 2 in F major.
!!!OMV: Movement 2.
!!!SCT: BWV 1047
!!!YEC: Copyright 1994, Center for Computer Assisted Research in the Humanities
!!!YEM: Rights to all derivative electronic formats reserved.
!!!YEM: Refer to licensing agreement for further details.
!! For the following instrumentation: Flauto, Oboe, Violino,
!!    Violoncello, Continuo
!! Andante.
**kern	**kern	**kern	**kern	**kern
*Icemba	*Icello	*Ivioln	*Ioboe	*Ifltds
*IGcont	*IGcont	*	*	*
*k[b-]	*k[b-]	*k[b-]	*k[b-]	*k[b-]
*d:	*d:	*d:	*d:	*d:
*M3/4	*M3/4	*M3/4	*M3/4	*M3/4
*MM32	*MM32	*MM32	*MM32	*MM32
*clefF4	*clefF4	*clefG2	*clefG2	*clefG2
=1-	=1-	=1-	=1-	=1-
8D\L	8D\L	4r	2.r	2.r
8A\	8A\	.	.	.
8F\	8F\	4r	.	.
8A\	8A\	.	.	.
8D\	8D\	4a/	.	.
8F\J	8F\J	.	.	.
=2	=2	=2	=2	=2
8G\L	8G\L	4.b-/	2.r	2.r
8B-\	8B-\	.	.	.
8E\	8E\	.	.	.
8G\	8G\	8a/	.	.
8C#\	8C#\	(16g/LL	.	.
.	.	16b-/JJ	.	.
8E\J	8E\J	8a/J)	.	.
=3	=3	=3	=3	=3
8D\L	8D\L	4fT/	4r	2.r
8A\	8A\	.	.	.
8F\	8F\	(8e/L	4r	.
8A\	8A\	8d/J)	.	.
8D\	8D\	4ff\	4a/	.
8F\J	8F\J	.	.	.
=4	=4	=4	=4	=4
8G/L	8G/L	(8ff\L	(4.b-/	2.r
8E/	8E/	8ee\J)	.	.
8C#/	8C#/	4r	.	.
8E/	8E/	.	8a/)	.
8AA/	8AA/	(8ee\L	(16g/LL	.
.	.	.	16b-/JJ	.
8C#/J	8C#/J	16ff\LL	8a/J)	.
.	.	16gg\JJ)	.	.
=5	=5	=5	=5	=5
8D/L	8D/L	(8eet\L	4fT/	4r
8AA/	8AA/	8dd\J)	.	.
8FF/	8FF/	4r	(8e/L	4r
8AA/	8AA/	.	8d/J)	.
8DD/	8DD/	4dd\	4ff\	4aa\
8FF/J	8FF/J	.	.	.
=6	=6	=6	=6	=6
8GG/L	8GG/L	(8dd\L	(8ff\L	4.bb-\
8BB-/	8BB-/	8cc#\J)	8ee\J)	.
8EE/	8EE/	4r	4r	.
8GG/	8GG/	.	.	8aa\
8AA/	8AA/	4cc#\	(8ee\L	(16gg\LL
.	.	.	.	16bb-\JJ
8A/J	8A/J	.	16ff\LL	8aa\J)
.	.	.	16gg\JJ)	.
=7	=7	=7	=7	=7
8D\L	8D\L	(8cc#\L	(8ee\L	4ffT\
8A\	8A\	8dd\J)	8dd\J)	.
8F\	8F\	4r	4r	(8ee\L
8A\	8A\	.	.	8dd\J)
8D\	8D\	4r	4f/	4aa\
8F\J	8F\J	.	.	.
=8	=8	=8	=8	=8
8GG#/L	8GG#/L	4r	(8f/L	(4.bb\
8BB/	8BB/	.	8e/J)	.
8EE/	8EE/	4r	4r	.
8GG#/	8GG#/	.	.	16ccc\LL
.	.	.	.	16ddd\JJ)
8AA/	8AA/	4f/	4r	(16ccc\LL
.	.	.	.	16bb\JJ
8D/J	8D/J	.	.	8ccc\J)
=9	=9	=9	=9	=9
8E\L	8E\L	(8f/L	4r	4gg#t\
8B\	8B\	8e/J)	.	.
8G#\	8G#\	4r	4r	(8ff#\L
8B\	8B\	.	.	8ee\J)
8A\	8A\	4r	4ee\	4ccc\
8c\J	8c\J	.	.	.
=10	=10	=10	=10	=10
8d\L	8d\L	2.r	4.ff\	(8ccc\L
8f\	8f\	.	.	8bb\J)
8B\	8B\	.	.	4r
8d\	8d\	.	8ee\	.
8G\	8G\	.	(16dd\LL	(8bb\L
.	.	.	16aa\JJ	.
8B\J	8B\J	.	8gg\J)	16ccc\LL
.	.	.	.	16ddd\JJ)
=11	=11	=11	=11	=11
8c\L	8c\L	4r	(8ff\L	(8bb\L
8e\	8e\	.	8ee\)	8aa\J)
8A\	8A\	4r	(8dd\	4r
8c\	8c\	.	8cc\)	.
8F\	8F\	4aa\	(8bt\	4aa\
8A\J	8A\J	.	8a\J)	.
=12	=12	=12	=12	=12
8B\L	8B\L	4.ff\	4.dd\	(8aa\L
8d\	8d\	.	.	8gg#\J)
8G#\	8G#\	.	.	4r
8B\	8B\	8ee\	8cc\	.
8E\	8E\	(16dd\LL	(16b\LL	4gg#\
.	.	16ff\JJ	16dd\JJ	.
8e\J	8e\J	8ee\J)	8cc\J)	.
=13	=13	=13	=13	=13
8A\L	8A\L	(8dd\L	(8b/L	(8gg#\L
8c\	8c\	8cc\)	8a/J)	8aa\J)
8F\	8F\	(8b\	4r	4r
8A\	8A\	8a\J)	.	.
8D\	8D\	(8b\L	4ff\	4aa\
8BB\J	8BB\J	16cc\LL	.	.
.	.	16dd\JJ)	.	.
=14	=14	=14	=14	=14
8E\L	8E\L	4.ccT\	(8ff\L	4.aa\
8D\J	8D\J	.	8ee\)	.
4E\	4E\	.	(8dd\	.
.	.	8b\	8cc\J)	8bb\
4EE/	4EE/	(8b\L	(16dd\LL	(16ee\LL
.	.	.	16ff\JJ	16aa\JJ
.	.	8cc\J)	8ee\J)	8gg#\J)
=15	=15	=15	=15	=15
8AA/L	8AA/L	4a/)	(8dd\L	4aa\
8E/	8E/	.	8cc\)	.
8C/	8C/	4r	(8bt\	4r
8E/	8E/	.	8a\J)	.
8AA/	8AA/	4r	4cc\	4ccc\
8C/J	8C/J	.	.	.
=16	=16	=16	=16	=16
8BB-/L	8BB-/L	2.r	(4.dd\	(8ccc\L
8D/	8D/	.	.	8bb-\J)
8GG/	8GG/	.	.	4r
8BB-/	8BB-/	.	16ee\LL	.
.	.	.	16ff\JJ)	.
8CC/	8CC/	.	(16ee\LL	(8bb-\L
.	.	.	16gg\JJ	.
8C/J	8C/J	.	8ff\J)	16ccc\LL
.	.	.	.	16ddd\JJ)
=17	=17	=17	=17	=17
8FF/L	8FF/L	4r	4ff\	(8bb-\L
8AA/	8AA/	.	.	8aa\J)
8GG/	8GG/	4r	(8eet\L	4r
8BB-/	8BB-/	.	8dd\)	.
8AA/	8AA/	4cc\	(8cc\	4aa\
8C/J	8C/J	.	8dd\J)	.
=18	=18	=18	=18	=18
8BB-\L	8BB-\L	(4.dd\	(8cc\L	(8aa\L
8D\	8D\	.	8b-\J)	8gg\J)
8GG\	8GG\	.	4r	4r
8BB-\	8BB-\	16ee\LL	.	.
.	.	16ff\JJ)	.	.
8C\	8C\	(16ee\LL	(8b-\L	(8gg\L
.	.	16gg\JJ	.	.
8c\J	8c\J	8ff\J)	16cc\LL	16aa\LL
.	.	.	16dd\JJ)	16bb-\JJ)
=19	=19	=19	=19	=19
8F\L	8F\L	(4ff\	(8b-/L	(8gg\L
8A\	8A\	.	8a/J)	8ff\J)
8G\	8G\	8eet\L	4r	4r
8B-\	8B-\	8dd\)	.	.
8A\	8A\	(8cc\	4a/	4ccc\
8c\J	8c\J	8dd\J)	.	.
=20	=20	=20	=20	=20
8B-\L	8B-\L	(8cc\L	(8a/L	(4.ddd\
8d\	8d\	8b-\J)	8g/J)	.
8G\	8G\	4r	4r	.
8B-\	8B-\	.	.	16eee\LL
.	.	.	.	16fff\JJ)
8C#\	8C#\	(8b-\L	(8g/L	(16eee\LL
.	.	.	.	16ggg\JJ
8E\J	8E\J	16cc\LL	16a/LL	8fff\J)
.	.	16dd\JJ)	16b-/JJ)	.
=21	=21	=21	=21	=21
8D\L	8D\L	(8b-T/L	(8gT/L	4fff\
8A\	8A\	8a/J)	8f/J)	.
8F\	8F\	4r	4r	(8eeet\L
8A\	8A\	.	.	8ddd\)
8D\	8D\	4ff\	4dd\	(8ccc\
8F\J	8F\J	.	.	8bb\J)
=22	=22	=22	=22	=22
8E\L	8E\L	(8ff\L	(8dd\L	4ggg\
8F\J	8F\J	8ee\)	8cc\)	.
4G\	4G\	(8aa\	(8cc\	(8fff\L
.	.	8gg\)	8b\J)	8eee\)
4GG/	4GG/	(8ff\	(8b/L	(8ddd\
.	.	8gg\J)	16a/LL	8ccc\J)
.	.	.	16b/JJ)	.
=23	=23	=23	=23	=23
8C\L	8C\L	4ee\	4cc\	4ccc\
8E\	8E\	.	.	.
8D\	8D\	4r	4r	4r
8F\	8F\	.	.	.
8E\	8E\	4gg\	4r	4r
8G\J	8G\J	.	.	.
=24	=24	=24	=24	=24
8F\L	8F\L	4.aa\	2.r	2.r
8D\	8D\	.	.	.
8BB\	8BB\	.	.	.
8D\	8D\	8gg\	.	.
8GG\	8GG\	(16ff\LL	.	.
.	.	16aa\JJ	.	.
8BB\J	8BB\J	8gg\J)	.	.
=25	=25	=25	=25	=25
8C/L	8C/L	(8eet\L	2.r	4r
8AA/	8AA/	16gg\LL	.	.
.	.	16ff#\JJ)	.	.
8BB-/	8BB-/	(8gg\L	.	4r
8FF#/	8FF#/	16bb-\LL	.	.
.	.	16aa\JJ)	.	.
8GG/	8GG/	4bb-\	.	4ddd\
8BB-/J	8BB-/J	.	.	.
=26	=26	=26	=26	=26
8C/L	8C/L	(8bb-\L	2.r	4.eee-\
8E-/	8E-/	8aa\J)	.	.
8AA/	8AA/	4r	.	.
8C/	8C/	.	.	8ddd\
8D/	8D/	(8aa\L	.	(16ccc\LL
.	.	.	.	16eee-\JJ
8DD/J	8DD/J	16bb-\LL	.	8ddd\J)
.	.	16ccc\JJ)	.	.
=27	=27	=27	=27	=27
8GG/L	8GG/L	(8aat\L	4r	8bb-\L)
8E/	8E/	8gg\J)	.	(16ddd\LL
.	.	.	.	16ccc#\JJ)
8F/	8F/	4r	4r	8ddd\L
8C#/	8C#/	.	.	(16fff\LL
.	.	.	.	16eee\JJ)
8D/	8D/	4ddd\	4a/	4fff\
8F/J	8F/J	.	.	.
=28	=28	=28	=28	=28
8G\L	8G\L	(8ddd\L	4.b-/	(8fff\L
8B-\	8B-\	8ccc#\J)	.	8eee\J)
8E\	8E\	4r	.	4r
8G\	8G\	.	8a/	.
8A\	8A\	4ccc#\	(16g/LL	(8eee\L
.	.	.	16b-/JJ	.
8AA\J	8AA\J	.	8a/J)	16fff\LL
.	.	.	.	16ggg\JJ)
=29	=29	=29	=29	=29
8D\L	8D\L	(8ccc#\L	4fT/	(8eeet\L
8A\	8A\	8ddd\J)	.	8ddd\J)
8F\	8F\	4r	(8e/L	4r
8A\	8A\	.	8d/J)	.
8D\	8D\	4a/	4ff\	4r
8F\J	8F\J	.	.	.
=30	=30	=30	=30	=30
8G\L	8G\L	(4.b-\	(8ff\L	2.r
8B-\	8B-\	.	8ee-\J)	.
8E-\	8E-\	.	4r	.
8G\	8G\	16cc\LL	.	.
.	.	16dd\JJ)	.	.
8C\	8C\	(16ee-\LL	(8ee-\L	.
.	.	16dd\JJ	.	.
8E-\J	8E-\J	8ee-\J)	16ff\LL	.
.	.	.	16gg\JJ)	.
=31	=31	=31	=31	=31
8F\L	8F\L	4at/	(8ee-T\L	4r
8A\	8A\	.	8dd\J)	.
8D\	8D\	(8g/L	4r	4r
8F\	8F\	8f/J)	.	.
8BB-\	8BB-\	4b-\	4dd\	4fff\
8D\J	8D\J	.	.	.
=32	=32	=32	=32	=32
8E-\L	8E-\L	4.b-\	(8dd\L	4.ggg\
8C\J	8C\J	.	8cc\J)	.
4F\	4F\	.	4r	.
.	.	8cc\	.	8fff\
4FF/	4FF/	4at/	(8cc\L	(16eee-\LL
.	.	.	.	16ggg\JJ
.	.	.	16dd\LL	8fff\J)
.	.	.	16ee-\JJ)	.
=33	=33	=33	=33	=33
8BB-\L	8BB-\L	(8a/L	(8cc\L	(8eee-\L
8F\	8F\	8b-/J)	8b-\J)	8ddd\J)
8D\	8D\	4r	4ff\	4r
8F\	8F\	.	.	.
8BB-\	8BB-\	4r	4bb-\	4dd\
8D\J	8D\J	.	.	.
=34	=34	=34	=34	=34
8FF\L	8FF\L	4r	(8bb-\L	(8dd\L
8c\	8c\	.	8aa\J)	8cc\J)
8A\	8A\	4cc\	4r	4r
8c\	8c\	.	.	.
8F\	8F\	4ff\	4aa\	4r
8A\J	8A\J	.	.	.
=35	=35	=35	=35	=35
8C\L	8C\L	(8ff\L	(8aa\L	4r
8G\	8G\	8ee-\J)	8gg\J)	.
8E-\	8E-\	4r	4r	4gg\
8G\	8G\	.	.	.
8C\	8C\	4ee-\	4r	4ccc\
8E-\J	8E-\J	.	.	.
=36	=36	=36	=36	=36
8GG\L	8GG\L	(8ee-\L	4r	(8ccc\L
8d\	8d\	8dd\J)	.	8bb-\J)
8B-\	8B-\	4r	4dd\	4r
8d\	8d\	.	.	.
8G\	8G\	4r	4gg\	4bb-\
8B-\J	8B-\J	.	.	.
=37	=37	=37	=37	=37
8D\L	8D\L	4r	(8gg\L	(8bb-\L
8A\	8A\	.	8ff#\J)	8aa\J)
8F#\	8F#\	4r	4r	4r
8A\	8A\	.	.	.
8G\	8G\	4bb-\	4r	4ddd\
8B-\J	8B-\J	.	.	.
=38	=38	=38	=38	=38
8c\L	8c\L	(8bb-\L	2.r	4.eee-\
8e-\	8e-\	8aa\J)	.	.
8A\	8A\	4r	.	.
8c\	8c\	.	.	8ddd\
8F\	8F\	(8aa\L	.	(16ccc\LL
.	.	.	.	16ggg\JJ
8A\J	8A\J	16bb-\LL	.	8fff\J)
.	.	16ccc\JJ)	.	.
=39	=39	=39	=39	=39
8B-\L	8B-\L	(8aat\L	4r	(8eee-\L
8d\	8d\	8gg\J)	.	8ddd\)
8G\	8G\	4r	4r	(8cccT\
8B-\	8B-\	.	.	8bb-\)
8E-\	8E-\	4gg\	4dd\	(8aa\
8G\J	8G\J	.	.	8gg\J)
=40	=40	=40	=40	=40
8A\L	8A\L	(8gg\L	4.ee-\	4.ccc\
8c\	8c\	8ff#\J)	.	.
8F#\	8F#\	4r	.	.
8A\	8A\	.	8dd\	8bb-\
8D\	8D\	4ff#\	(16cc\LL	(16aa\LL
.	.	.	16ee-\JJ	16ccc\JJ
8d\J	8d\J	.	8dd\J)	8bb-\J)
=41	=41	=41	=41	=41
8G\L	8G\L	(8ff#\L	(8cc/L	(8aat\L
8B-\	8B-\	8gg\J)	8b-/)	8gg\J)
8E-\	8E-\	4r	(8a/	4r
8G\	8G\	.	8g/J)	.
8C\	8C\	4gg\	(8a/L	4eee-\
8AA\J	8AA\J	.	16b-/LL	.
.	.	.	16cc/JJ)	.
=42	=42	=42	=42	=42
8D/L	8D/L	4.gg\	4.b-T/	(8eee-\L
8C/J	8C/J	.	.	8ddd\)
4D/	4D/	.	.	(8ccc\
.	.	8aa\	8a/	8bb-\J)
4DD/	4DD/	(16dd\LL	(8a/L	(16ccc\LL
.	.	16gg\JJ	.	16eee-\JJ
.	.	8ff#\J)	8b-/J)	8ddd\J)
=43	=43	=43	=43	=43
8GG\L	8GG\L	4gg\)	4g/	(8ccc\L
8d\	8d\	.	.	8bb-\)
8B-\	8B-\	4r	4r	(8aa\
8d\	8d\	.	.	8gg\J)
8G\	8G\	4b-\	4dd\	4r
8B-\J	8B-\J	.	.	.
=44	=44	=44	=44	=44
8C#/L	8C#/L	(8b-/L	(4.ee\	4r
8E/	8E/	8a/J)	.	.
8AA/	8AA/	4r	.	4r
8C#/	8C#/	.	16ff\LL	.
.	.	.	16gg\JJ)	.
8D/	8D/	4r	(16ff\LL	4b-\
.	.	.	16ee\JJ	.
8GG/J	8GG/J	.	8ff\J)	.
=45	=45	=45	=45	=45
8AA/L	8AA/L	4r	4cc#t\	(8b-/L
8E/	8E/	.	.	8a/J)
8C#/	8C#/	4r	(8b/L	4r
8E/	8E/	.	8a/J)	.
8AA/	8AA/	4ee\	4r	4gg\
8C#/J	8C#/J	.	.	.
=46	=46	=46	=46	=46
8DD/L	8DD/L	(8ee\L	4r	(8gg\L
8A/	8A/	8dd\J)	.	8ff\J)
8F/	8F/	4r	4r	4r
8A/	8A/	.	.	.
8D/	8D/	4f/	4dd\	4r
8F/J	8F/J	.	.	.
=47	=47	=47	=47	=47
8AA/L	8AA/L	(8f/L	(8dd\L	4r
8E/	8E/	8e/J)	8cc#\J)	.
8C#/	8C#/	4r	4r	4r
8E/	8E/	.	.	.
8AA/	8AA/	4r	4ee\	4g/
8C#/J	8C#/J	.	.	.
=48	=48	=48	=48	=48
8DD/L	8DD/L	4r	(8ee\L	(8g/L
8A/	8A/	.	8dd\J)	8f/J)
8F/	8F/	4r	4r	4r
8A/	8A/	.	.	.
8D/	8D/	4dd\	4r	4ff\
8F/J	8F/J	.	.	.
=49	=49	=49	=49	=49
8AA/L	8AA/L	(8dd\L	4r	(8ff\L
8E/	8E/	8cc#\J)	.	8ee\J)
8C#/	8C#/	4r	4e/	4r
8E/	8E/	.	.	.
8AA/	8AA/	4cc#\	4g/	4r
8C#/J	8C#/J	.	.	.
=50	=50	=50	=50	=50
8DD/L	8DD/L	(8cc#\L	(8g/L	4r
8A/	8A/	8dd\J)	8f#/J)	.
8F#/	8F#/	4r	4r	4aa\
8A/	8A/	.	.	.
8D/	8D/	4r	4ff#\	4ccc\
8F#/J	8F#/J	.	.	.
=51	=51	=51	=51	=51
8GG\L	8GG\L	4r	(8ff#\L	(8ccc\L
8d\	8d\	.	8gg\J)	8bb\J)
8B\	8B\	4dd\	4r	4r
8d\	8d\	.	.	.
8G\	8G\	4ff\	4r	4bb\
8B\J	8B\J	.	.	.
=52	=52	=52	=52	=52
8C\L	8C\L	(8ff\L	4r	(8bb\L
8G\	8G\	8ee\J)	.	8ccc\J)
8E\	8E\	4r	4g/	4r
8G\	8G\	.	.	.
8C\	8C\	4ee\	4b-\	4r
8E\J	8E\J	.	.	.
=53	=53	=53	=53	=53
8FF\L	8FF\L	(8ee\L	(8b-/L	4r
8c\	8c\	8ff\J)	8a/J)	.
8A\	8A\	4r	4r	4cc\
8c\	8c\	.	.	.
8F\	8F\	4r	4a/	4ee-\
8A\J	8A\J	.	.	.
=54	=54	=54	=54	=54
8BB-\L	8BB-\L	4r	(8a/L	(8ee-\L
8F\	8F\	.	8b-/J)	8dd\J)
8D\	8D\	4ff\	4r	4r
8F\	8F\	.	.	.
8BB-\	8BB-\	4aa\	4r	4ff\
8D\J	8D\J	.	.	.
=55	=55	=55	=55	=55
8EE/L	8EE/L	(8aa\L	4r	(8ff\L
8B-/	8B-/	8gg\J)	.	8ee\J)
8G/	8G/	4r	4bb-\	4r
8B-/	8B-/	.	.	.
8E/	8E/	4bb-\	4dd\	4r
8G/J	8G/J	.	.	.
=56	=56	=56	=56	=56
8AA/L	8AA/L	(8bb-\L	(8dd\L	4r
8E/	8E/	8aa\J)	8cc#\J)	.
8C#/	8C#/	4r	4r	4ee\
8E/	8E/	.	.	.
8AA/	8AA/	4r	4ee\	4gg\
8C#/J	8C#/J	.	.	.
=57	=57	=57	=57	=57
8DD\L	8DD\L	4r	(8ee\L	(8gg\L
8A\	8A\	.	8dd\J)	8ff\J)
8F\	8F\	4r	4r	4r
8A\	8A\	.	.	.
8D\	8D\	4a/	4r	4ff\
8F\J	8F\J	.	.	.
=58	=58	=58	=58	=58
8G\L	8G\L	4.b-/	2.r	(8ff\L
8B-\	8B-\	.	.	8ee\J)
8E\	8E\	.	.	4r
8G\	8G\	8a/	.	.
8C\	8C\	(16g/LL	.	(8ee\L
.	.	16dd/JJ	.	.
8E\J	8E\J	8cc/J)	.	16ff\LL
.	.	.	.	16gg\JJ)
=59	=59	=59	=59	=59
8F\L	8F\L	(8b-/L	4r	(8ee\L
8A\	8A\	8a/)	.	8dd\J)
8D\	8D\	(8g/	4r	4r
8F\	8F\	8f/)	.	.
8BB-\	8BB-\	(8et/	4ddd\	4dd\
8D\J	8D\J	8d/J)	.	.
=60	=60	=60	=60	=60
8E\L	8E\L	4.g/	4.bb-\	(8dd\L
8G\	8G\	.	.	8cc#\J)
8C#\	8C#\	.	.	4r
8E\	8E\	8f/	8aa\	.
8AA\	8AA\	(16e/LL	(16gg\LL	4cc#\
.	.	16g/JJ	16bb-\JJ	.
8A\J	8A\J	8f/J)	8aa\J)	.
=61	=61	=61	=61	=61
8D/L	8D/L	(8et/L	(8gg\L	(8cc#\L
8F/	8F/	8d/J)	8ff\)	8dd\J)
8BB-/	8BB-/	4r	(8ee\	4r
8D/	8D/	.	8dd\J)	.
8GG/	8GG/	4bb-\	(8ee\L	4dd\
8EE/J	8EE/J	.	16ff\LL	.
.	.	.	16gg\JJ)	.
=62	=62	=62	=62	=62
8AA/L	8AA/L	(8bb-\L	4.ffT\	4.dd\
8GG/J	8GG/J	8aa\)	.	.
2AA/	2AA/	(8gg\	.	.
.	.	8ff\)	8ee\	8ee\
.	.	8gg\	(8ee\L	(16a\LL
.	.	.	.	16dd\JJ
.	.	8aa\J	8ff\J)	8cc#\J)
=63	=63	=63	=63	=63
2BB-/	2BB-/	4.eet\)	4.cc#\	([4gg\
.	.	.	.	16gg\LL]
.	.	.	.	16bb-\JJ
.	.	8ff\	8dd\	8aa\J)
[4BB/	[4BB/	[4dd\	[4g#/	[4ff\)
=64	=64	=64	=64	=64
4BB/]	4BB/]	(8dd\L]	8g#/L]	(16ff\LL]
.	.	.	.	16cc#\JJ
.	.	16ee\LL	8a/J	8dd\J)
.	.	16ff\JJ)	.	.
2AA/	2AA/	(8a/L	4fT/	(4dd\
.	.	8g/)	.	.
.	.	(8b-/	(8e/L	8.cc#t\L)
.	.	8a/J)	8d/J)	.
.	.	.	.	16dd\Jk
=65	=65	=65	=65	=65
2.DD;/	2.DD;/	2.f#;t/	2.d;/	2.dd;\
==	==	==	==	==
*-	*-	*-	*-	*-
!!!CDT: 1685/3//-1750/7/28
!!!OCY: Deutschland
!!!ODE: His Royal Highness Christian Ludwig, Margrave of Brandenburg.
!!!ODT: 1717//-1718//
!!!OPC: ?Coethen; ?Cothen; ?Co2then
!!!PPR: Peters
!!!PDT: 1850
!!!PPP: Leipzig
!!!AGN: concerto grosso
!!!AST: baroque, orchestral
!!!AMT: simple triple
!!!SCA: Bach-Werke-Verzeichnis
!!!YOR: Bach Gesellschaft, xix,33
!!!YOY: 1871; although imprint says 1869
!!!AIN: cello; cemba; fltds; oboe; violn
!!!EEV: 1.0
!!!RDT: 1994 February 19
!!!YER: 1994 October 22
!!!YEN: United States of America
!!!EFL: 2/3
!!!EED: W.B. Hewlett
!!!VTS: 947305392
